X:405
T: Egan's
S: "First Collection of Traditional Irish Music" (M.Mulvihill)
Z: B.Black
L: 1/8
M: 4/4
R: reel
K: G
G2 BG DGBG|(3GAG Bd cAFA|G2 BG DGBc|defd cAFA|
G2 BG DGBG|(3GAG Bd cAFA|GB (3BAB dB (3BAB|defd cAFA||
dggf g2 fg|ad (3dcd adfa|dggf g2 fe|defe cAFA|
dggf g2 fg|ad (3dcd bd (3dcd|dg (3gfg bg (3gfg|defd cAFA||
